dist/svg/static/walk-large.svg

<svg xmlns="http://www.w3.org/2000/svg" width="48" height="48" viewBox="0 0 48 48"><g fill="none" stroke="currentColor"><path d="M30.5 7.5c0 1.1-.9 2-2 2h-2c-1.1 0-2-.9-2-2v-2c0-1.1.9-2 2-2h2c1.1 0 2 .9 2 2v2zM19.5 26.5h-4l3-10 3.1-3.1c.6-.6 1.3-.9 2.1-.9h3.8l6 7 3 1v4l-5-1-4-5-2 8 11 18h-5l-12-18L22 18"/><path d="M19.5 26.5v7l-5 11h5l5-10.5"/></g></svg>

<?xml version="1.0" encoding="UTF-8" standalone="no"?>
<svg width="48px" height="48px" viewBox="0 0 48 48" version="1.1" xmlns="http://www.w3.org/2000/svg" xmlns:xlink="http://www.w3.org/1999/xlink">
    <!-- Generator: sketchtool 46.2 (44496) - http://www.bohemiancoding.com/sketch -->
    <title>walk-large</title>
    <desc>Created with sketchtool.</desc>
    <defs></defs>
    <g id="icons-published" stroke="none" stroke-width="1" fill="none" fill-rule="evenodd">
        <g id="briefing" transform="translate(0.000000, -2458.000000)"></g>
        <g id="walk-large" stroke="#000000">
            <path d="M30.5,7.5 C30.5,8.6 29.6,9.5 28.5,9.5 L26.5,9.5 C25.4,9.5 24.5,8.6 24.5,7.5 L24.5,5.5 C24.5,4.4 25.4,3.5 26.5,3.5 L28.5,3.5 C29.6,3.5 30.5,4.4 30.5,5.5 L30.5,7.5 Z M19.5,26.5 L15.5,26.5 L18.5,16.5 L21.6,13.4 C22.2,12.8 22.9,12.5 23.7,12.5 L27.5,12.5 L33.5,19.5 L36.5,20.5 L36.5,24.5 L31.5,23.5 L27.5,18.5 L25.5,26.5 L36.5,44.5 L31.5,44.5 L19.5,26.5 L22,18 L19.5,26.5 Z" id="Shape"></path>
            <polyline id="Shape" points="19.5 26.5 19.5 33.5 14.5 44.5 19.5 44.5 24.5 34"></polyline>
        </g>
    </g>
</svg>
